assets/img/braze_icons/simcard.svg

<svg fill="none" height="24" viewBox="0 0 24 24" width="24" xmlns="http://www.w3.org/2000/svg"><g fill="#801ed7"><path d="m9.00001 17v-3h5.99999v3z"/><path clip-rule="evenodd" d="m13.6911 1.11058c-.4627-.11108-.9424-.110851-1.5774-.11055l-3.355.00003c-.80497-.00001-1.46933-.00002-2.01052.0442-.5621.04592-1.07881.14449-1.56414.39178-.75265.38349-1.36457.99541-1.74806 1.74806-.2473.48534-.34586 1.00204-.39179 1.56414-.04421.54119-.0442 1.20554-.04419 2.01051v10.48265c-.00001.8049-.00002 1.4693.04419 2.0105.04593.5621.14449 1.0788.39179 1.5641.38349.7527.99541 1.3646 1.74806 1.7481.48533.2473 1.00204.3458 1.56414.3918.54119.0442 1.20554.0442 2.0105.0442h6.48262c.805 0 1.4693 0 2.0105-.0442.5621-.046 1.0788-.1445 1.5642-.3918.7526-.3835 1.3645-.9954 1.748-1.7481.2473-.4853.3459-1.002.3918-1.5641.0442-.5412.0442-1.2056.0442-2.0105v-7.35498c.0003-.635.0006-1.1148-.1105-1.5775-.098-.40814-.2596-.79832-.4789-1.15621-.2487-.40572-.5881-.74482-1.0373-1.19361l-3.3323-3.33232c-.4488-.44922-.7879-.78865-1.1936-1.03728-.3579-.21931-.7481-.38093-1.1563-.47892zm-4.91423 10.88942c-.11911 0-.26138-.0001-.38669.0101-.14522.0119-.35321.0424-.57115.1534-.28225.1438-.51172.3733-.65553.6555-.11105.218-.14149.426-.15335.5712-.01024.1253-.01019.2676-.01014.3867v3.4463c-.00005.1191-.0001.2613.01014.3866.01186.1453.0423.3533.15335.5712.14381.2822.37328.5117.65553.6555.21794.1111.42593.1415.57115.1534.12531.0102.26756.0102.38667.0101h6.44635c.1191.0001.2613.0001.3866-.0101.1453-.0119.3533-.0423.5712-.1534.2822-.1438.5117-.3733.6555-.6555.1111-.2179.1415-.4259.1534-.5712.0102-.1253.0102-.2675.0101-.3867v-3.4462c.0001-.1191.0001-.2614-.0101-.3867-.0119-.1452-.0423-.3532-.1534-.5712-.1438-.2822-.3733-.5117-.6555-.6555-.2179-.111-.4259-.1415-.5712-.1534-.1253-.0102-.2675-.0101-.3866-.0101z" fill-rule="evenodd"/></g></svg>

<svg width="24" height="24" viewBox="0 0 24 24" fill="none" xmlns="http://www.w3.org/2000/svg">
<path d="M9.00001 17V14H15V17H9.00001Z" fill="#801ED7"/>
<path fill-rule="evenodd" clip-rule="evenodd" d="M13.6911 1.11058C13.2284 0.9995 12.7487 0.999729 12.1137 1.00003L8.7587 1.00006C7.95373 1.00005 7.28937 1.00004 6.74818 1.04426C6.18608 1.09018 5.66937 1.18875 5.18404 1.43604C4.43139 1.81953 3.81947 2.43145 3.43598 3.1841C3.18868 3.66944 3.09012 4.18614 3.04419 4.74824C2.99998 5.28943 2.99999 5.95378 3 6.75875V17.2414C2.99999 18.0463 2.99998 18.7107 3.04419 19.2519C3.09012 19.814 3.18868 20.3307 3.43598 20.816C3.81947 21.5687 4.43139 22.1806 5.18404 22.5641C5.66937 22.8114 6.18608 22.9099 6.74818 22.9559C7.28937 23.0001 7.95372 23.0001 8.75868 23.0001H15.2413C16.0463 23.0001 16.7106 23.0001 17.2518 22.9559C17.8139 22.9099 18.3306 22.8114 18.816 22.5641C19.5686 22.1806 20.1805 21.5687 20.564 20.816C20.8113 20.3307 20.9099 19.814 20.9558 19.2519C21 18.7107 21 18.0463 21 17.2414L21 9.88642C21.0003 9.25142 21.0006 8.77162 20.8895 8.30892C20.7915 7.90078 20.6299 7.5106 20.4106 7.15271C20.1619 6.74699 19.8225 6.40789 19.3733 5.9591L16.041 2.62678C15.5922 2.17756 15.2531 1.83813 14.8474 1.5895C14.4895 1.37019 14.0993 1.20857 13.6911 1.11058ZM8.77687 12C8.65776 12 8.51549 11.9999 8.39018 12.0101C8.24496 12.022 8.03697 12.0525 7.81903 12.1635C7.53678 12.3073 7.30731 12.5368 7.1635 12.819C7.05245 13.037 7.02201 13.245 7.01015 13.3902C6.99991 13.5155 6.99996 13.6578 7.00001 13.7769V17.2232C6.99996 17.3423 6.99991 17.4845 7.01015 17.6098C7.02201 17.7551 7.05245 17.9631 7.1635 18.181C7.30731 18.4632 7.53678 18.6927 7.81903 18.8365C8.03697 18.9476 8.24496 18.978 8.39018 18.9899C8.51549 19.0001 8.65774 19.0001 8.77685 19H15.2232C15.3423 19.0001 15.4845 19.0001 15.6098 18.9899C15.7551 18.978 15.9631 18.9476 16.181 18.8365C16.4632 18.6927 16.6927 18.4632 16.8365 18.181C16.9476 17.9631 16.978 17.7551 16.9899 17.6098C17.0001 17.4845 17.0001 17.3423 17 17.2231V13.7769C17.0001 13.6578 17.0001 13.5155 16.9899 13.3902C16.978 13.245 16.9476 13.037 16.8365 12.819C16.6927 12.5368 16.4632 12.3073 16.181 12.1635C15.9631 12.0525 15.7551 12.022 15.6098 12.0101C15.4845 11.9999 15.3423 12 15.2232 12H8.77687Z" fill="#801ED7"/>
</svg>
